packages/core/src/svgs/xels.svg

<svg width="24" height="24" viewBox="0 0 24 24" fill="none" xmlns="http://www.w3.org/2000/svg">
<g clip-path="url(#clip0_31_20898)">
<path d="M0 0H24V24H0V0Z" fill="#4DB135"/>
<path fill-rule="evenodd" clip-rule="evenodd" d="M3.42847 8.14307L7.22818 15.4288H7.73389L3.89904 8.14307H3.42847ZM4.67561 15.4288L5.84561 13.4432L5.41704 12.7159L3.8069 15.4288H4.67647H4.67561ZM8.96732 8.14307L7.16604 11.2014L6.76747 10.4424L8.13289 8.14307H8.96732ZM8.12904 15.4288L4.32932 8.14307H5.16504L8.9999 15.4288H8.12904ZM12.2163 8.14864C10.1849 8.25235 8.57132 9.84149 8.57132 11.7859C8.57132 13.7304 10.1849 15.3195 12.2163 15.4232V14.5648C10.7348 14.4688 9.54975 13.3734 9.43704 12.0002H11.5713V11.1431H9.50861C9.80561 9.97607 10.8929 9.09278 12.2163 9.00707V8.14864ZM12.6449 9.0075V8.14864C14.6742 8.2545 16.2856 9.84235 16.2856 11.7859C16.2856 12.9036 15.7529 13.9031 14.9142 14.5716H17.1428L16.7142 15.4288H12.6428V14.5716H12.6449V14.5644C14.2006 14.4615 15.4285 13.2572 15.4285 11.7859C15.4285 10.3151 14.2006 9.11035 12.6449 9.0075ZM18.5986 12.2064C18.519 12.2019 18.4396 12.1938 18.3608 12.1824C18.2136 12.165 18.0689 12.1308 17.9296 12.0804C17.7347 12.0168 17.5531 11.9181 17.3939 11.7889L17.3965 11.7864C17.1506 11.5948 16.9519 11.3494 16.8157 11.0691C16.6794 10.7888 16.6092 10.481 16.6105 10.1694C16.6105 9.1065 17.4106 8.23435 18.4285 8.14992V9.02378C17.9395 9.13307 17.5713 9.60878 17.5713 10.1788C17.5713 10.8144 18.0286 11.3325 18.6008 11.3565C18.6539 11.3625 18.713 11.3719 18.7773 11.3844C19.7836 11.4808 20.5713 12.3486 20.5713 13.4055C20.5713 14.4765 19.7626 15.3534 18.737 15.4301H17.1428L17.5713 14.5729H18.7718C19.3028 14.5031 19.7142 14.0016 19.7142 13.3939C19.7142 12.7382 19.2342 12.2059 18.6428 12.2059C18.6278 12.2059 18.6132 12.2055 18.5986 12.2064Z" fill="white"/>
</g>
<defs>
<clipPath id="clip0_31_20898">
<rect width="24" height="24" fill="white"/>
</clipPath>
</defs>
</svg>

<svg xmlns="http://www.w3.org/2000/svg" width="24" height="24" fill="none" viewBox="0 0 24 24"><g clip-path="url(#a)"><path fill="#4DB135" d="M0 0h24v24H0z"/><path fill="#fff" fill-rule="evenodd" d="m3.428 8.143 3.8 7.286h.506L3.899 8.143zm1.248 7.286 1.17-1.986-.429-.727-1.61 2.713zm4.291-7.286-1.801 3.058-.399-.759 1.366-2.299zM8.13 15.43l-3.8-7.286h.836L9 15.43zm4.087-7.28c-2.031.103-3.645 1.692-3.645 3.637 0 1.944 1.614 3.534 3.645 3.637v-.858C10.735 14.469 9.55 13.373 9.437 12h2.134v-.857H9.51c.297-1.167 1.384-2.05 2.707-2.136zm.429.859v-.86c2.03.107 3.64 1.694 3.64 3.638 0 1.118-.532 2.117-1.37 2.786h2.228l-.429.857h-4.071v-.857h.002v-.008c1.556-.103 2.784-1.307 2.784-2.778 0-1.47-1.228-2.676-2.784-2.778m5.954 3.198a3 3 0 0 1-.238-.024 2 2 0 0 1-.431-.102 1.7 1.7 0 0 1-.536-.291l.003-.003a2.04 2.04 0 0 1-.787-1.617c0-1.062.8-1.935 1.819-2.02v.875c-.49.11-.858.585-.858 1.155 0 .635.458 1.153 1.03 1.178q.08.009.176.027c1.007.097 1.794.965 1.794 2.021 0 1.072-.808 1.948-1.834 2.025h-1.594l.428-.857h1.2c.532-.07.943-.571.943-1.18 0-.655-.48-1.187-1.071-1.187z" clip-rule="evenodd"/></g><defs><clipPath id="a"><path fill="#fff" d="M0 0h24v24H0z"/></clipPath></defs></svg>
